X: 29
T:Montecarlo or Bust
% Nottingham Music Database
S:via PR
M:4/4
L:1/4
K:G
"G"B,G, B,D-|DB,2D|"G"GD GB-|B4|"G"BG AG|"G7"BG AG|"C"BA GE-|E3^E|
"D7"F2 F2|FA -AD|"G"GA ^AB-|"E7"B3B|"A7"BA GE|BA GE|"D7"FG ^GA-|A4||
"G"B,G, B,D-|DB,2D|"G"GD GB-|B4|"G"BG AG|"G7"BG AG|"C"BA GE-|
E3E|"C"E^D EG-|"C#/dim"GA2^A|"G""d"B^A Bc-|"E7"c^D2E|"A7"B2 BB-|"A7"BG "D7"A2|\
"G"G4||


